X:1
T: Alex Sandy Skinner
C:J. Murdoch Henderson
R:Reel
I:speed 232
Q:232
K:F
M:4/4
L:1/8
|:((3ABc) cB AF FB|A2 FA cf cB|((3ABc) cB AF FA|G2_EG B_e BG|
((3ABc) cB AF FB|A2 FA cf eg|af eg fc Ac|G2_EG B_e BG:|
|:Ac ce fc cB|AF FB AB cB|Ac cf af cA|G_E EB GA BG|
AB ce fc fa|fd cB AB cA|Bc dB Ac fa|g2 _EG B_e BG:|
